icons/pin-outline.svg

<svg xmlns="http://www.w3.org/2000/svg" width="24" height="24" viewBox="0 0 24 24">
  <path d="M7.74230433,3.87865887 C8.91386604,2.70709716 10.8133598,2.70712217 11.9849208,3.87868314 C12.2347473,4.12850967 12.4384794,4.42050275 12.5867268,4.74120403 C13.0313118,5.70296791 13.6006839,6.52889829 14.2961219,7.22433624 C14.8395575,7.76777186 15.5744902,8.14327714 16.5249632,8.34673791 L16.5249632,8.34673791 L16.702522,8.39034363 C18.2196997,8.8116851 19.1645376,10.3480901 18.8305666,11.9082458 C18.7094738,12.4739343 18.4274064,12.9925467 18.0183422,13.4016109 L18.0183422,13.4016109 L16.417,15.002 L20.6602079,19.2452033 C21.0507322,19.6357276 21.0507322,20.2688926 20.6602079,20.6594169 C20.2975782,21.0220466 19.7257328,21.0479487 19.3332152,20.7371232 L19.2459943,20.6594169 L15.003,16.416 L13.4022868,18.0176663 C12.2775913,19.1423617 10.4820305,19.1873184 9.30366666,18.152597 L9.15967892,18.0176335 C8.75061747,17.608572 8.46855274,17.0899625 8.34746259,16.5242774 C8.14400047,15.573783 7.76849363,14.8388436 7.22505408,14.2954041 C6.52961592,13.5999659 5.70368525,13.0305937 4.74191494,12.5860058 L4.74191494,12.5860058 L4.58404835,12.5074186 C3.19287659,11.7638012 2.60721068,10.0543125 3.2775916,8.60408752 C3.42583953,8.28338501 3.6295724,7.9913908 3.87939989,7.74156331 L3.87939989,7.74156331 Z M10.5707072,5.2928967 C10.180189,4.9023785 9.54702016,4.90237017 9.15650636,5.29288397 L9.15650636,5.29288397 L5.29361345,9.15577688 C5.21033803,9.2390523 5.14242741,9.33638322 5.09301168,9.44328353 C4.86127558,9.94459474 5.07980967,10.5388501 5.58111701,10.7705885 C6.75332837,11.3124548 7.77449227,12.0164151 8.63926765,12.8811905 C9.46909883,13.7110217 10.0223583,14.7938574 10.3031581,16.1056426 C10.3435208,16.2942013 10.4375409,16.4670683 10.5738925,16.6034199 C10.9644085,16.993936 11.5975787,16.9939472 11.9880888,16.6034371 L11.9880888,16.6034371 L16.6041286,11.9873973 C16.7404845,11.8510414 16.8345078,11.6781692 16.8748724,11.4896047 L16.8748724,11.4896047 L16.8927051,11.3741577 C16.9403236,10.8757402 16.6078192,10.4097778 16.1063334,10.3024345 C14.7945604,10.0216329 13.7117338,9.46837526 12.8819083,8.63854981 C12.0171332,7.77377469 11.3131731,6.75261113 10.7713068,5.58040021 C10.7218916,5.47350107 10.6539817,5.37617121 10.5707072,5.2928967 Z"/>
</svg>

<svg xmlns="http://www.w3.org/2000/svg" viewBox="0 0 24 24">
  <path d="M7.74 3.88a3 3 0 0 1 4.85.86 8.53 8.53 0 0 0 1.7 2.48c.55.55 1.28.92 2.23 1.13l.18.04a3 3 0 0 1 1.32 5.01l-1.6 1.6 4.24 4.25a1 1 0 0 1-1.33 1.49l-.08-.08L15 16.42l-1.6 1.6a3 3 0 0 1-4.1.13l-.14-.13a3 3 0 0 1-.81-1.5 4.34 4.34 0 0 0-1.12-2.22 8.53 8.53 0 0 0-2.49-1.71l-.16-.08a3 3 0 0 1-.7-4.77zm2.83 1.41a1 1 0 0 0-1.41 0L5.29 9.16a1 1 0 0 0 .3 1.61c1.16.54 2.18 1.25 3.05 2.11a6.32 6.32 0 0 1 1.66 3.23 1 1 0 0 0 1.69.5l4.61-4.62a1 1 0 0 0 .27-.5l.02-.12a1 1 0 0 0-.78-1.07 6.32 6.32 0 0 1-3.23-1.66 10.53 10.53 0 0 1-2.1-3.06 1 1 0 0 0-.2-.29z"/>
</svg>
